X: 33877
T: Red Gap, The
R: reel
M: 4/4
K: Dmajor
"D"~F3A B2dB|BAFB AFEF|"D"DFAd "G"~f3d|edfd edBA|
"D"~F3A B2dB|BAFB AFEF|"D"DFAd "G"~f3e|1 "A"dBAF "D"D3E:|2 "A"dBAF"D"D3z||
"D"a3b a2fa|abaf efdA|"Em"Beed efab|afed Bddf|
"D"a3b a2fa|bfaf efdA|"Em"Beed efab|"A"afef d3z||
"D"a3b a2fa|"Bm"abaf efdA|"Em"Beed efab|afed BddA|
"D"~F3A B2dB|BAFB AFEF|"D"DFAd "G"~f3e|"A"dBAF "D"D3z:|

